!!!SOCIAL_FUNCTION:	war songs
!!!PDT:	1909
!!!OTL: No_128_Song_of_the_Loons.krn
!!!REG: Great_Lakes
!!!LANG: Non-Tone
!!!LING_GROUP: Algonquin
**kern	**kern
*staff2	*staff1
=1-	=1-
*clefF4	*clefF4
*k[b-e-]	*k[b-e-]
*M2/4	*M2/4
2r	4f\
.	8.f\L
.	16d\Jk
=2	=2
12GG^/	4f\
12r	.
12GG/	.
12GG^/	8.f\L
12r	.
12GG/	.
.	16g\Jk
=3	=3
2r	4f\
.	16f\LK
.	8.d\J
=4||	=4||
*M3/4	*M3/4
2.r	4B-\
.	4.B-\
.	8B-\
=5||	=5||
*M2/4	*M2/4
2r	[2B-\
=6	=6
2r	4B-\]
.	8.d\L
.	16d\Jk
=7	=7
2r	4f\
.	(12d\L
.	12B-\)
.	12c\J
=8	=8
2r	4B-\
.	8.B-\L
.	16d\Jk
=9	=9
2r	4B-\
.	8.B-\L
.	16G\Jk
=10	=10
2r	4B-\
.	8.B-\L
.	16B-\Jk
=11	=11
2r	4B-\
.	16B-\LK
.	8.G\J
=12	=12
2r	4F\
.	8.F\L
.	16F\Jk
=13	=13
2r	4F\
.	8.F\L
.	16D\Jk
=14	=14
2r	4F\
.	8.F\L
.	16F\Jk
=15	=15
2r	4F\
.	16F\LK
.	8.D\J
=16	=16
2r	8.BB-/L
.	16BB-/Jk
.	[4BB-/
=17	=17
2r	2BB-/]
==	==
*-	*-
